ui/StatusQ/src/assets/img/icons/max.svg

<svg fill="none" height="24" viewBox="0 0 24 24" width="24" xmlns="http://www.w3.org/2000/svg"><g fill="#000"><path d="m8 19.25c4.5563 0 8.25-3.6937 8.25-8.25 0-.4389-.5306-.6587-.841-.3484l-.8787.8787c-.2929.2929-.7677.2929-1.0606 0s-.2929-.7677 0-1.0606l3-3.00003c.2929-.29289.7677-.29289 1.0606 0l3 3.00003c.2929.2929.2929.7677 0 1.0606s-.7677.2929-1.0606 0l-.8787-.8787c-.3104-.3103-.841-.0905-.841.3484 0 5.3848-4.3652 9.75-9.75 9.75h-4c-.41421 0-.75-.3358-.75-.75s.33579-.75.75-.75z"/><path d="m3.25 4c0-.41421.33579-.75.75-.75h16c.4142 0 .75.33579.75.75s-.3358.75-.75.75h-16c-.41421 0-.75-.33579-.75-.75z"/></g></svg>

<svg width="24" height="24" viewBox="0 0 24 24" fill="none" xmlns="http://www.w3.org/2000/svg">
<path d="M8 19.25C12.5563 19.25 16.25 15.5563 16.25 11C16.25 10.5611 15.7194 10.3413 15.409 10.6516L14.5303 11.5303C14.2374 11.8232 13.7626 11.8232 13.4697 11.5303C13.1768 11.2374 13.1768 10.7626 13.4697 10.4697L16.4697 7.46967C16.7626 7.17678 17.2374 7.17678 17.5303 7.46967L20.5303 10.4697C20.8232 10.7626 20.8232 11.2374 20.5303 11.5303C20.2374 11.8232 19.7626 11.8232 19.4697 11.5303L18.591 10.6516C18.2806 10.3413 17.75 10.5611 17.75 11C17.75 16.3848 13.3848 20.75 8 20.75H4C3.58579 20.75 3.25 20.4142 3.25 20C3.25 19.5858 3.58579 19.25 4 19.25H8Z" fill="black"/>
<path d="M3.25 4C3.25 3.58579 3.58579 3.25 4 3.25H20C20.4142 3.25 20.75 3.58579 20.75 4C20.75 4.41421 20.4142 4.75 20 4.75H4C3.58579 4.75 3.25 4.41421 3.25 4Z" fill="black"/>
</svg>
